24x24/apps/google-earth-pro.svg

<svg xmlns="http://www.w3.org/2000/svg" width="24" height="24" version="1.1">
 <circle style="opacity:0.2" cx="12" cy="12.5" r="10"/>
 <path style="fill:#255fdb" d="M 8.896424,14.082977 C 5.4873264,9.572741 1.9873198,13.00002 2.9009578,16.152299 c 1.5693211,3.44887 5.0716008,5.847738 9.0954712,5.847738 3.568189,0 6.653422,-1.860231 8.405698,-4.568191 -2.636369,2.467051 -7.421605,2.05455 -11.505703,-3.348869 z"/>
 <path style="fill:#4285f4" d="M 11.944157,10.977289 C 7.2555114,3.8659125 1.9998199,7.6556923 1.9998199,12.002291 c 0,1.490912 0.3250005,2.897733 0.9079561,4.16819 -0.6227283,-2.944324 2.7602326,-5.214782 5.9102386,-0.988639 4.5738714,6.136375 9.0625164,5.056828 11.5738854,2.264778 0.67841,-1.011366 1.339775,-2.562505 1.525002,-4.104554 l -0.0035,0.01932 c -1.074974,3.343187 -5.834074,3.887506 -9.969309,-2.384097 z"/>
 <path style="fill:#91bfff" d="M 15.157799,7.7954656 C 11.675974,2.0511363 7.2611934,2.5681828 4.2759604,5.6465973 2.8566396,7.3727373 1.9998199,9.5852415 1.9998199,12.000018 c 0.3125005,-4.2090984 5.3977372,-7.1306947 10.0000191,0 4.096598,6.346603 9.187516,4.693191 9.912518,1.377276 l 0.0045,-0.03181 c 0.07273,-0.455683 0.08068,-0.890912 0.08068,-1.359094 0,-0.151136 0.0057,-0.301137 -0.0012,-0.45 -1.775003,1.259092 -4.104553,0.769319 -6.838649,-3.7409164 z"/>
 <path style="fill:#c4e1ff" d="M 15.181662,8.8181943 C 18.370305,13.94434 21.119173,12.632974 21.996448,11.536381 21.962358,10.754562 21.835084,9.9977423 21.630538,9.273877 20.144171,9.304557 19.79758,9.0568314 18.340759,6.8295543 16.099846,3.4034116 13.283932,1.09318 8.3680139,2.680683 6.7589197,3.3090932 5.3520987,4.3409133 4.2725513,5.6511433 7.6532397,2.5397736 11.800974,3.3840934 15.181662,8.8181943 Z"/>
 <path style="fill:#f5f5f5" d="m 18.116895,7.2693275 c 1.456821,2.2272776 2.344323,2.3454589 3.513643,2.0045495 -1.189775,-4.2034172 -5.0466,-7.2738771 -9.634109,-7.2738771 -1.280684,0 -2.5068225,0.2443186 -3.6318246,0.6818194 4.3943266,-1.3863662 7.5113776,1.1613658 9.7522906,4.5875082 z"/>
 <path style="opacity:0.1" d="m 2.0076319,12.298846 c -0.00255,0.06777 -0.00781,0.135046 -0.00781,0.203124 0,1.490912 0.3252458,2.898482 0.9082015,4.168939 C 2.860451,16.445993 2.8433483,16.227162 2.8406383,16.012707 2.3393596,14.869155 2.0461012,13.619018 2.0076319,12.298846 Z m 3.3915957,0.562499 c -1.5655406,-0.09898 -2.6778564,1.223395 -2.5498002,2.864253 0.1904775,-2.42077 3.1683611,-3.801018 5.9687397,-0.04394 4.5738719,6.136375 9.0628299,5.056695 11.5741989,2.264644 0.675408,-1.00689 1.332888,-2.548682 1.521481,-4.083977 -0.04956,0.154023 -0.110021,0.300639 -0.174804,0.442382 -0.288088,1.20376 -0.810072,2.341631 -1.346677,3.141596 -2.511369,2.79205 -7.000327,3.871731 -11.5741989,-2.264644 C 7.6369147,13.59685 6.4224763,12.926038 5.3992276,12.861345 Z"/>
 <path style="opacity:0.1" d="M 6.1218828,7.6797133 C 3.971473,7.6729843 2.3430766,9.4463772 2.0379053,11.657245 c -0.023237,0.278017 -0.038086,0.558694 -0.038086,0.842772 0.3125005,-4.2090983 5.3977011,-7.1306947 9.9999827,0 4.096598,6.346603 9.187091,4.692866 9.912092,1.376951 l 0.0049,-0.03125 c 0.07273,-0.455683 0.08105,-0.89119 0.08105,-1.359373 0,-0.151136 0.0059,-0.30133 -0.001,-0.450194 -6.5e-4,0.448909 -0.01,0.870461 -0.08008,1.309568 l -0.0049,0.03125 C 21.186893,16.692884 16.0964,18.346621 11.999802,12.000018 9.9863041,8.8803392 7.8801493,7.6852153 6.1218828,7.6797133 Z"/>
 <path style="opacity:0.1" d="M 8.318168,3.853548 C 7.6215342,3.8638727 6.9320179,4.02024 6.2586011,4.3174144 5.5171969,4.8382816 4.8470182,5.4538402 4.2722765,6.1513954 7.6529647,3.040026 11.800749,3.8842814 15.181437,9.3183824 c 3.188643,5.1261456 5.938144,3.8143616 6.815418,2.7177686 -0.0068,-0.155379 -0.02017,-0.308572 -0.03418,-0.461913 -0.909488,1.088014 -3.629193,2.311455 -6.781238,-2.7558547 C 13.068507,5.4220702 10.655818,3.8189022 8.318168,3.853548 Z"/>
 <path style="opacity:0.1" d="m 11.996873,2.5000348 c -1.280685,0 -2.506828,0.2441386 -3.6318301,0.6816394 4.3943261,-1.3863661 7.5110231,1.1617401 9.7519361,4.5878824 1.456821,2.2272782 2.344346,2.3448124 3.513666,2.003903 C 21.58618,9.6163699 21.530114,9.4643937 21.478301,9.3105699 20.383586,9.593971 19.508778,9.3974253 18.116979,7.2695575 16.635431,5.0044109 14.76749,3.1308323 12.404098,2.5166363 12.268192,2.5111902 12.134139,2.5000348 11.996873,2.5000348 Z"/>
 <path style="opacity:0.2;fill:#f4f4f7" d="m 11.999802,2.0000357 a 9.9999826,9.9999826 0 0 0 -9.9999825,9.9999823 9.9999826,9.9999826 0 0 0 0.010742,0.291015 9.9999826,9.9999826 0 0 1 9.9892405,-9.7909982 9.9999826,9.9999826 0 0 1 9.989241,9.7089672 9.9999826,9.9999826 0 0 0 0.01074,-0.208984 A 9.9999826,9.9999826 0 0 0 11.9998,2.0000357 Z"/>
</svg>

<svg xmlns="http://www.w3.org/2000/svg" width="24" height="24"><circle style="opacity:.2" cx="12" cy="12.5" r="10"/><path style="fill:#255fdb" d="M8.896 14.083C5.487 9.573 1.987 13 2.901 16.153a10.009 10.009 0 0 0 17.501 1.279c-2.636 2.467-7.421 2.054-11.506-3.349z"/><path style="fill:#4285f4" d="M11.944 10.977C7.256 3.866 2 7.656 2 12.002c0 1.491.325 2.898.908 4.168-.623-2.944 2.76-5.214 5.91-.988 4.574 6.136 9.063 5.057 11.574 2.265.678-1.012 1.34-2.563 1.525-4.105l-.004.02c-1.075 3.343-5.834 3.887-9.969-2.385z"/><path style="fill:#91bfff" d="M15.158 7.795C11.676 2.051 7.26 2.568 4.276 5.647A9.97 9.97 0 0 0 2 12c.312-4.21 5.398-7.13 10 0 4.096 6.347 9.187 4.693 9.912 1.377l.005-.032c.073-.455.08-.89.08-1.359 0-.15.006-.3 0-.45-1.776 1.26-4.105.77-6.84-3.74z"/><path style="fill:#c4e1ff" d="M15.182 8.818c3.188 5.126 5.937 3.815 6.814 2.718a9.896 9.896 0 0 0-.365-2.262c-1.487.03-1.833-.217-3.29-2.444-2.241-3.427-5.057-5.737-9.973-4.15a10.05 10.05 0 0 0-4.095 2.971C7.653 2.54 11.8 3.384 15.182 8.818z"/><path style="fill:#f5f5f5" d="M18.117 7.27c1.457 2.227 2.344 2.345 3.514 2.004A10.004 10.004 0 0 0 11.996 2c-1.28 0-2.506.244-3.631.682 4.394-1.387 7.511 1.161 9.752 4.587z"/><path style="opacity:.1" d="M2.008 12.299c-.003.068-.008.135-.008.203 0 1.49.325 2.898.908 4.169a3.357 3.357 0 0 1-.067-.658 9.94 9.94 0 0 1-.833-3.714zm3.391.562c-1.565-.099-2.678 1.224-2.55 2.865.19-2.421 3.169-3.801 5.97-.044 4.573 6.136 9.062 5.056 11.573 2.264.676-1.007 1.333-2.548 1.522-4.084-.05.154-.11.301-.175.443-.288 1.203-.81 2.341-1.347 3.141-2.511 2.792-7 3.872-11.574-2.264-1.181-1.585-2.396-2.256-3.419-2.32z"/><path style="opacity:.1" d="M6.122 7.68c-2.15-.007-3.779 1.766-4.084 3.977-.023.278-.038.559-.038.843.312-4.21 5.398-7.13 10 0 4.096 6.347 9.187 4.693 9.912 1.377l.005-.031c.073-.456.08-.891.08-1.36 0-.15.007-.301 0-.45 0 .45-.01.87-.08 1.31l-.005.031C21.187 16.693 16.096 18.347 12 12 9.986 8.88 7.88 7.685 6.122 7.68z"/><path style="opacity:.1" d="M8.318 3.854a5.266 5.266 0 0 0-2.06.463 10.077 10.077 0 0 0-1.986 1.834c3.381-3.111 7.529-2.267 10.91 3.167 3.188 5.127 5.938 3.815 6.815 2.718a9.743 9.743 0 0 0-.034-.462c-.91 1.088-3.63 2.312-6.782-2.756-2.112-3.396-4.525-5-6.863-4.964z"/><path style="opacity:.1" d="M11.997 2.5c-1.28 0-2.507.244-3.632.682 4.394-1.387 7.511 1.161 9.752 4.588 1.457 2.227 2.344 2.344 3.514 2.003-.045-.157-.1-.309-.153-.462-1.094.283-1.97.086-3.361-2.041-1.482-2.266-3.35-4.14-5.713-4.753-.136-.006-.27-.017-.407-.017z"/><path style="opacity:.2;fill:#f4f4f7" d="M12 2A10 10 0 0 0 2 12a10 10 0 0 0 .01.291A10 10 0 0 1 12 2.5a10 10 0 0 1 9.989 9.709 10 10 0 0 0 .01-.209A10 10 0 0 0 12 2z"/></svg>
